src/pos-icons/download.svg

<svg height="24" viewBox="0 0 24 24" width="24" xmlns="http://www.w3.org/2000/svg"><path d="m5 20h14v-2h-14m14-9h-4v-6h-6v6h-4l7 7z"/></svg>

<?xml version="1.0" encoding="UTF-8"?><!DOCTYPE svg PUBLIC "-//W3C//DTD SVG 1.1//EN" "http://www.w3.org/Graphics/SVG/1.1/DTD/svg11.dtd"><svg xmlns="http://www.w3.org/2000/svg" xmlns:xlink="http://www.w3.org/1999/xlink" version="1.1" id="mdi-download" width="24" height="24" viewBox="0 0 24 24"><path d="M5,20H19V18H5M19,9H15V3H9V9H5L12,16L19,9Z" /></svg>
